**kern	**kern	**kern
*staff3	*staff2	*staff1
*tb16	*tb16	*tb16
=1-	=1-	=1-
*clefF4	*clefG2	*clefG1
*k[b-e-]	*k[b-e-]	*k[b-e-]
*M6/8	*M6/8	*M6/8
4BBB-/	8d/L 8f/L	8a/
.	8c#/ 8en/	16gn/LL
.	.	16a/JJ
8BB-/	8d/J 8f/J	16b-/LL
.	.	16a/JJ
8r	8r	8r
8r	8r	8r
8r	8r	8r
=2	=2	=2
4BBB-/	8B-/L 8d/L	4dd\
.	8d/ 8f/	.
8BB-/	8B-/ 8d/	8a/
4BBB-/	8d/ 8f/	8a/L
.	8c/ 8en/	16gn/
.	.	16a/JJ
8BB-/	8d/J 8f/J	16b-/LL
.	.	16a/JJ
=3	=3	=3
4BBB-/	8B-/L 8d/L	4.ff\
.	8d/ 8f/	.
8BB-/	8B-/ 8d/	.
4BBB-/	8d/ 8f/	8a/
.	8c#/ 8e-/	16gn/LL
.	.	16a/JJ
8BB-/	8d/J 8f/J	16b-/LL
.	.	16a/JJ
=4	=4	=4
!!linebreak:original
*	*	*clefG2
4BBB-/	8B-/L 8d/L	8ff\L
.	8d/ 8f/	8ee-\J
8BB-/	8B-/ 8d/	8dd\
4BBB-/	8d/ 8f/	8cc\L
.	8B-/ 8d/	8b-\J
8BB-/	8d/J 8f/J	8a/
=5	=5	=5
4BBB-/	8B-/L 8d/L	4.a-/
.	8d/ 8f/	.
8BB-/	8B-/ 8d/	.
4BBB-/	8d/ 8f/	8a-/
.	8B-/ 8d/	16g/LL
.	.	16a-/JJ
8BB-/	8d/J 8f/J	16b-/LL
.	.	16a-/JJ
=6	=6	=6
4EE-/	8B-/L 8e-/L	4g/
.	8e-/ 8g/	.
8E-\	8B-/ 8e-/	8ee-\
4EE-/	8e-/ 8g/	8ff\L
.	8c/ 8e-/	8ee-\J
8E-\	8e-/J 8g/J	8cc\
=7	=7	=7
4FF/ 4F/	4c/ 4e-/ 4a/	4a/
8r	8r	8ff\
4r	4r	4ff\
8B-\	8f/ 8b-/ 8dd/	8r
=8	=8	=8
!!linebreak:original
4F\	4f/ 4a/ 4cc/	4r
8r	8r	8f/
4r	4r	4f/
8BB-/	8F/ 8B-/ 8d/	8r
=9	=9	=9
4FF/	4F/ 4A/ 4c/	4r
8r	8r	8f/
8AA/L 8F/L	8c/L 8e-/L	8f/L
8AA/ 8F/	8c/ 8e-/	16en/
.	.	16f/JJ
8AA/J 8F/J	8c/J 8e-/J	16g/LL
.	.	16f/JJ
=10	=10	=10
8AA-/L 8F/L	8B-/L 8d/L	8b-\
8AA-/ 8F/	8B-/ 8d/	16an/LL
.	.	16b-/JJ
8AA-/J 8F/J	8B-/J 8d/J	16cc\LL
.	.	16b-\JJ
4GG/ 4G/	4B-/ 4e-/	8ee-\L
.	.	8cc'\J
8GG-/ 8G-/	8c/ 8e-/	8b-\
=11	=11	=11
!!linebreak:original
4.FF/ 4.F/	16r	8a/
.	16c/LL	.
.	16e-/ 16a/	8a/
.	16c/	.
.	16e-/ 16a/	8a/
.	16c/JJ	.
4.FF/ 4.F/	16r	8a/
.	16c/LL	.
.	16e-/ 16a/	8g/
.	16c/	.
.	16e-/ 16a/	8f/
.	16c/JJ	.
=12	=12	=12
4.FF/ 4.F/	16r	8b-/L
.	16d/LL	.
.	16f/ 16b-/	8a/J
.	16d/	.
.	16f/ 16b-/	8g/
.	16d/JJ	.
4.FF/ 4.F/	16r	8cc\L
.	16e-/LL	.
.	16a/ 16cc/	8b-\J
.	16e-/	.
.	16a/ 16cc/	8a/
.	16e-/JJ	.
=13	=13	=13
4.BB-/	16r	4dd\
.	16f/LL	.
.	16b-/ 16dd/	.
.	16f/	.
.	16b-/ 16dd/	8dd\
.	16f/JJ	.
4.BB-/	16r	8dd\
.	16f/LL	.
.	16b-/ 16dd/	8cc\
.	16f/	.
.	16b-/ 16dd/	8b-\
.	16f/JJ	.
=14	=14	=14
!!linebreak:original
4.BB-/	16r	8ee-\L
.	16f/LL	.
.	16a/ 16cc/ 16ee-/	8dd\J
.	16f/	.
.	16a/ 16cc/ 16ee-/	8cc\
.	16f/JJ	.
4.BB-/	16r	8ff\L
.	16f/LL	.
.	16a-/ 16b-/ 16dd/	8ee-\J
.	16f/	.
.	16a-/ 16b-/ 16dd/	8dd\
.	16f/JJ	.
=15	=15	=15
8EE-/L	8g/L 8b-/L 8ee-/L	4gg\
8E-/	8e-/ 8g/	.
8E-/J	8e-/J 8g/J	8g/
4.E-\	4.e-/ 4.g/	8g/
.	.	16an/
.	.	16bn/
.	.	16cc\LL
.	.	16dd\JJ
=16	=16	=16
4E-\	4e-/ 4g/ 4cc/	(16ee-\LL
.	.	16dd\
.	.	16cc\
.	.	16bn\
8r	8r	16cc\
.	.	16dd\JJ
4E-\	4e-/ 4g/ 4cc/	16ee-\LL
.	.	16gg\
.	.	16ff#\)
.	.	16gg\JJ
8r	8r	16ee-\LL
.	.	16cc\JJ
=17	=17	=17
!!linebreak:original
2.FF/ 2.F/	8B-/L 8d/L	(4.ff\
.	8c/ 8e-/	.
.	8c/J 8en/J	.
.	4d/ 4f/	8f/L
.	.	8g/J)
.	8c/ 8e-/	8a/
=18	=18	=18
4BB-/	4B-/ 4d/	4b-\
8r	8r	8ff\
4r	4r	4ff\
8F\	8f/ 8a/ 8cc/	8r
=19	=19	=19
4B-\	4f/ 4b-/ 4dd/	4r
8r	8r	8f/
4.r	4r	4f/
.	(8F/ 8A/ 8c/	8r
=20	=20	=20
4BB-/	4F/) 4B-/ 4d/	4.r
8FF/	(8F/ 8A/ 8c/	.
4BB-/	4F/) 4B-/ 4d/	4.r
8FF/	(8F/ 8A/ 8c/	.
=21	=21	=21
4.BB-/	4.F/) 4.B-/ 4.d/	4.r
8r	8r	8r
4r	4r	4r
=22:|!	=22:|!	=22:|!
4BBB-/	8B-/L 8d/L	8ff\
.	8c/ 8e-/	16ee-\LL
.	.	16dd\JJ
8BB-/	8d/J 8f/J	16cc\LL
.	.	16b-\JJ
8r	8r	8r
4r	4r	4r
=23	=23	=23
!!linebreak:original
4BBB-/	8c/L 8e-/L	8b-\
.	8e-/ 8f/	8a/
8BB-/	8c/ 8e-/	8a/
4BBB-/	8e-/ 8f/	8ee-\L
.	8c/ 8e-/	8cc\J
8BB-/	8e-/J 8f/J	8a/
=24	=24	=24
4BBB-/	8B-/L 8d/L	(8b-\
.	8d/ 8f/	8a/)
8BB-/	8B-/ 8d/	8b-\
4BBB-/	8d/ 8f/	8b-/L
.	8B-/ 8d/	16a/
.	.	16b-/JJ
8BB-/	8d/J 8f/J	16cc\LL
.	.	16b-\JJ
=25	=25	=25
4BBBn/	8G/L 8d/L	8a-/L
.	8d/ 8f/	8g/J
8BB#/	8G/ 8d/	8g/
4BBB/	8d/ 8f/	8g/L
.	8G/ 8d/	8a-/J
8BB#/	8d/J 8f/J	8f/
=26	=26	=26
4CC/	8G/L 8c/L	4e-/
.	8e-/ 8g/	.
8C/	8c/ 8e-/	8g/
4CC/	8e-/ 8g/	8cc\L
.	8c/ 8e-/	16bn\
.	.	16cc\JJ
8C/	8e-/J 8g/J	16dd\LL
.	.	16cc\JJ
=27	=27	=27
!!linebreak:original
4.FF/ 4.F/	4.c/ 4.e-/ 4.a/	8ee-\L
.	.	8cc\J
.	.	8a/
4.GG-/ 4.G-/	4.c/ 4.e-/ 4.b-/	8ee-\L
.	.	8cc\J
.	.	8b-\
=28	=28	=28
4FF/ 4F/	4c/ 4e-/ 4a/	4a/
8r	8r	8ff\
4r	4r	4ff\
8B-\	8f/ 8b-/ 8dd/	8r
=29	=29	=29
4F\	4f/ 4a/ 4cc/	4r
8r	8r	8f/
4r	4r	4f/
8BB-/	8F/ 8B-/ 8d/	8r
=30	=30	=30
4.FF/	4.F/ 4.A/ 4.c/	4.r
4F\	8r	8ee-\
.	8c/L 8f/L 8a/L	16dd\LL
.	.	16cc\JJ
8E-\	8c/J 8f/J 8a/J	16b-/LL
.	.	16a/JJ
=31	=31	=31
!!linebreak:original
4.D\	8r	8b-\
.	8B-/L 8f/L	8f/
.	8B-/J 8f/J	8f/
4.AA/	8r	16f/LL
.	.	16en/
.	8c/L 8e-/L 8f/L	16f/
.	.	16f#/JJ
.	8c/J 8e-/J 8f/J	16g/LL
.	.	16e-/JJ
=32	=32	=32
4.BB-/	4.B-/ 4.d/ 4.f/	8d/
.	.	8f/
.	.	8f/
8r	8r	4.b-\
8D\L	8B-/L 8f/L 8a-/L	.
8D\J	8B-/J 8f/J 8a-/J	.
=33	=33	=33
4E-\	4B-/ 4e-/ 4g/	8r
.	.	8g/
8r	8r	8g/
8r	8r	[4.ee-\
8D\L	8Bn/L 8e-/L 8g/L	.
8D\J	8B/J 8e-/J 8g/J	.
=34	=34	=34
4.C/	4.c/ 4.e-/ 4.g/	8ee-\L]
.	.	8cc\
.	.	8b-\J
4.FF/ 4.F/	16r	8a/
.	16c/LL	.
.	16e-/ 16a/	8g/
.	16c/	.
.	16e-/ 16a/	8f/
.	16c/JJ	.
=35	=35	=35
!!linebreak:original
4.FF/ 4.F/	16r	8b-\
.	16d/LL	.
.	16f/ 16b-/	8a/
.	16d/	.
.	16f/ 16b-/	8g/
.	16d/JJ	.
4.FF/ 4.F/	16r	8cc\L
.	16e-/LL	.
.	16a/ 16cc/	8b-\J
.	16e-/	.
.	16a/ 16cc/	8a/
.	16e-/JJ	.
=36	=36	=36
4.BB-/	16r	4.dd\
.	16f/LL	.
.	16b-/ 16dd/	.
.	16f/	.
.	16b-/ 16dd/	.
.	16f/JJ	.
4.BB-/	16r	8dd\
.	16f/LL	.
.	16b-/ 16dd/	8cc\
.	16f/	.
.	16b-/ 16dd/	8b-\
.	16f/JJ	.
=37	=37	=37
4.BB-/	16r	8ee-\
.	16f/LL	.
.	16a/ 16cc/ 16ee-/	8dd\
.	16f/	.
.	16a/ 16cc/ 16ee-/	8cc\
.	16f/JJ	.
4.BB-/	16r	8ff\L
.	16f/LL	.
.	16a-/ 16b-/ 16dd/	8ee-\J
.	16f/	.
.	16a-/ 16b-/ 16dd/	8dd\
.	16f/JJ	.
=38	=38	=38
!!linebreak:original
8EE-/L	8g/L 8b-/L 8ee-/L	4gg\
8E-/	8e-/ 8g/	.
8E-/J	8e-/J 8g/J	8r
4.E-\	4.e-/ 4.g/	8g/
.	.	16an/LL
.	.	16bn/JJ
.	.	16cc\LL
.	.	16dd\JJ
=39	=39	=39
4E-\	4e-/ 4g/ 4cc/	(16ee-\LL
.	.	16dd\
.	.	16cc\
.	.	16bn\
8r	8r	16cc\
.	.	16dd\JJ
4E-\	4e-/ 4g/ 4cc/	16ee-\LL
.	.	16gg\
.	.	16ff#\
.	.	16gg\JJ)
8r	8r	16ee-\
.	.	16cc\
=40	=40	=40
2.FF/ 2.F/	8B-/L 8d/L	(4.ff\
.	8c/ 8e-/	.
.	8c/J 8en/J	.
.	4d/ 4f/	8f/L
.	.	8g/J)
.	8c/ 8e-/	8a/
=41	=41	=41
!!linebreak:original
4BB-/	4B-/ 4d/	4b-\
8r	8r	8ff\
4r	4r	4ff\
8F\	8f/ 8a/ 8cc/	8r
=42	=42	=42
4B-\	4f/ 4b-/ 4dd/	4r
8r	8r	(8f/
4r	4r	4f/)
8F/ 8A/ 8c/	8r	8r
=43	=43	=43
*^	*	*
4F/ 4B-/ 4d/	4BB-\	4.r	4.r
8F/ 8A/ 8c/	8FF\	.	.
4F/ 4B-/ 4d/	4BB-\	4.r	4.r
8F/ 8A/ 8c/	8FF\	.	.
=44	=44	=44	=44
4.F/ 4.B-/ 4.d/	4.BB-\	4.r	4.r
*v	*v	*	*
==	==	==
*-	*-	*-
